X:39
T:The Kittenhead Reel
R:reel
C: 1979, 2010 L.E. McCullough  
M:4/4
L:1/8
K:G
f|:gedB ~G3B|AGED E~G3|~A3B dega|bage ~a3f|
gedB ~G3B|AGED E~G3|edBA bagd|(3efg BA ~G3f:|
|:~g3e d~B3|GABd e~g3|~a3b ageg|dega b~a3|
~g3e d~B3|GABd e~g3|edBA bagd|(3efg BA ~G3f:| 


